packages/components/icon/src/assets/icons/create-document.svg

<svg width="24" height="24" viewBox="0 0 24 24" fill="none" xmlns="http://www.w3.org/2000/svg">
<path fill-rule="evenodd" clip-rule="evenodd" d="M12.0002 2.77063C13.649 2.77063 15.1712 3.1792 16.5669 3.99635C17.9625 4.81351 19.0689 5.9199 19.8861 7.31557C20.7032 8.71124 21.1118 10.2334 21.1118 11.8822C21.1118 13.531 20.7032 15.0532 19.8861 16.4488C19.0689 17.8445 17.9625 18.9509 16.5669 19.768C15.1712 20.5852 13.649 20.9938 12.0002 20.9938C10.3515 20.9938 8.82928 20.5852 7.43361 19.768C6.03794 18.9509 4.93155 17.8445 4.1144 16.4488C3.29724 15.0532 2.88867 13.531 2.88867 11.8822C2.88867 10.2334 3.29724 8.71124 4.1144 7.31557C4.93155 5.9199 6.03794 4.81351 7.43361 3.99635C8.82928 3.1792 10.3515 2.77063 12.0002 2.77063ZM9.28847 5.48241C8.44962 5.82952 7.71925 6.32848 7.09735 6.97931C6.44652 7.60121 5.94756 8.33158 5.60045 9.17042C5.23888 10.0237 5.05809 10.9276 5.05809 11.8822C5.05809 12.8368 5.23888 13.7407 5.60045 14.594C5.94756 15.4328 6.44652 16.1632 7.09735 16.7851C7.71925 17.4359 8.44962 17.9349 9.28847 18.282C10.1418 18.6436 11.0457 18.8243 12.0002 18.8243C12.9548 18.8243 13.8587 18.6436 14.712 18.282C15.5509 17.9349 16.2812 17.4359 16.9031 16.7851C17.554 16.1632 18.0529 15.4328 18.4 14.594C18.7616 13.7407 18.9424 12.8368 18.9424 11.8822C18.9424 10.9276 18.7616 10.0237 18.4 9.17042C18.0529 8.33158 17.554 7.60121 16.9031 6.97931C16.2812 6.32848 15.5509 5.82952 14.712 5.48241C13.8587 5.12083 12.9548 4.94005 12.0002 4.94005C11.0457 4.94005 10.1418 5.12083 9.28847 5.48241ZM12.7812 6.37187C12.8969 6.37187 12.9909 6.40803 13.0633 6.48034C13.1356 6.55265 13.1717 6.64666 13.1717 6.76237V10.6673H17.0767C17.1924 10.6673 17.29 10.7071 17.3696 10.7866C17.4491 10.8662 17.4889 10.9638 17.4889 11.0795V12.6415C17.4889 12.7572 17.4491 12.8548 17.3696 12.9344C17.29 13.0139 17.1924 13.0537 17.0767 13.0537H13.1717V16.9586C13.1717 17.0599 13.1356 17.1503 13.0633 17.2298C12.9909 17.3094 12.8969 17.3491 12.7812 17.3491H11.1976C11.0963 17.3491 11.0059 17.3094 10.9264 17.2298C10.8468 17.1503 10.8071 17.0599 10.8071 16.9586V13.0537H6.9021C6.7864 13.0537 6.68878 13.0139 6.60923 12.9344C6.52968 12.8548 6.48991 12.7572 6.48991 12.6415V11.0795C6.48991 10.9638 6.52968 10.8662 6.60923 10.7866C6.68878 10.7071 6.7864 10.6673 6.9021 10.6673H10.8071V6.76237C10.8071 6.64666 10.8468 6.55265 10.9264 6.48034C11.0059 6.40803 11.0963 6.37187 11.1976 6.37187H12.7812Z" fill="currentColor"/>
</svg>

<svg viewBox="0 0 24 24" fill="none" xmlns="http://www.w3.org/2000/svg"><path fill-rule="evenodd" clip-rule="evenodd" d="M12 2.77a8.89 8.89 0 0 1 4.567 1.226 9.132 9.132 0 0 1 3.32 3.32 8.878 8.878 0 0 1 1.225 4.566 8.878 8.878 0 0 1-1.226 4.567 9.13 9.13 0 0 1-3.32 3.319A8.878 8.878 0 0 1 12 20.994a8.877 8.877 0 0 1-4.566-1.226 9.13 9.13 0 0 1-3.32-3.32 8.877 8.877 0 0 1-1.225-4.566c0-1.649.408-3.17 1.225-4.566a9.13 9.13 0 0 1 3.32-3.32A8.878 8.878 0 0 1 12 2.771ZM9.288 5.483a6.36 6.36 0 0 0-2.19 1.497A6.36 6.36 0 0 0 5.6 9.17a6.878 6.878 0 0 0-.542 2.712c0 .955.18 1.859.542 2.712a6.36 6.36 0 0 0 1.497 2.191 6.36 6.36 0 0 0 2.191 1.497 6.878 6.878 0 0 0 2.712.542 6.87 6.87 0 0 0 2.712-.542 6.36 6.36 0 0 0 2.191-1.497 6.36 6.36 0 0 0 1.497-2.191 6.878 6.878 0 0 0 .542-2.712c0-.954-.18-1.858-.542-2.712a6.359 6.359 0 0 0-1.497-2.19 6.36 6.36 0 0 0-2.191-1.498A6.878 6.878 0 0 0 12 4.94c-.954 0-1.858.18-2.712.542Zm3.493.89c.116 0 .21.036.282.108a.382.382 0 0 1 .109.282v3.905h3.905a.4.4 0 0 1 .293.12c.08.08.119.177.119.292v1.563c0 .115-.04.213-.12.292a.398.398 0 0 1-.292.12h-3.905v3.905a.392.392 0 0 1-.109.27.364.364 0 0 1-.282.12h-1.583a.373.373 0 0 1-.272-.12.373.373 0 0 1-.119-.27v-3.905H6.902a.398.398 0 0 1-.293-.12.398.398 0 0 1-.12-.292V11.08c0-.115.04-.213.12-.292.08-.08.177-.12.293-.12h3.905V6.762c0-.115.04-.21.12-.282a.392.392 0 0 1 .27-.108h1.584Z" fill="currentColor"/></svg>
